!!!COM: Lassus, Orlandus
!!!OPR: Novae aliquot et ante hac non ita usitatae cantiones suavissimae
!!!ONM: 6
!!!OTL@@LA: Qui sequitur me
**kern	**text	**kern	**text
*staff2	*staff2	*staff1	*staff1
*I"Altus	*	*I"Cantus	*
*I'A	*	*I'C	*
*clefC3	*	*clefC1	*
*mclefGv2	*	*mclefG2	*
*k[b-]	*	*k[b-]	*
*a:phr	*	*a:phr	*
*M2/1	*	*M2/1	*
*met(C|)	*	*met(C|)	*
=1	=1	=1	=1
1r	.	1.e	Qui
1A	Qui	.	.
.	.	2f.	se-
=2	=2	=2	=2
2.B-	se-	.	.
.	.	4f	-qui-
.	.	1g	-tur
4B-	-qui-	.	.
1c	-tur	.	.
.	.	2e	me,
=3	=3	=3	=3
1A	me,	2r	.
.	.	1cc	qui
1f	qui	.	.
.	.	2a.	se-
=4	=4	=4	=4
2.d	se-	.	.
.	.	4a	-qui-
.	.	1f	-tur
4d	-qui-	.	.
1B-	-tur	.	.
.	.	2d	me,
=5	=5	=5	=5
1G	me,	2r	.
.	.	1g	qui
1c	qui	.	.
.	.	2e.	se-
=6	=6	=6	=6
2.A	se-	.	.
.	.	4e	-qui-
.	.	2f	-tur
4A	-qui-	.	.
2B-	-tur	2.g	me,
2c.	me,	.	.
.	.	4f	.
=7	=7	=7	=7
.	.	4e	.
4B-	.	4d	.
4A	.	2c	.
4G	.	.	.
1F	.	2r	.
.	.	2cc	non
=8	=8	=8	=8
2r	.	1.a	am-
2f	non	.	.
1d.	am-	.	.
.	.	2b-	-bu-
=9	=9	=9	=9
.	.	1a	-lat,
2c#X	-bu-	.	.
1d	-lat,	2r	.
.	.	2a	non
=10	=10	=10	=10
2r	.	1.f	am-
2d	non	.	.
1A.	am-	.	.
.	.	2e	-bu-
=11	=11	=11	=11
.	.	1f	-lat
2B-	-bu-	.	.
2A	-lat	2.cc	in
2F.	-in	.	.
.	.	4b-	.
=12	=12	=12	=12
.	.	4a	.
4G	.	4g	.
4A	.	2f	.
4B-	.	.	.
4c	.	4e	te-
4A	.	4f	.
4B-	.	4g	.
4c	.	4e	.
=13	=13	=13	=13
1d	.	4f	.
.	.	4g	.
.	.	1a	.
2.B-	te-	.	.
.	.	2g	-ne-
4B-	-ne-	.	.
=14	=14	=14	=14
1A	-bris	0a.	-bris,
2r	.	.	.
1f	sed	.	.
=15	=15	=15	=15
.	.	.	.
2d	ha-	.	.
2.f	-be-	2r	.
.	.	1a	sed
4e	.	.	.
=16	=16	=16	=16
4d	.	.	.
4c	.	.	.
4d	.	2f	ha-
4e	.	.	.
2f	.	2.a	-be-
2d	-bit,	.	.
.	.	4g	.
=17	=17	=17	=17
2r	.	4f	.
.	.	4e	.
2a	sed	4f	.
.	.	4g	.
2f	ha-	2a	.
2a.	-be-	2f	-bit,
=18	=18	=18	=18
.	.	1cc	sed
4g	.	.	.
4f	.	.	.
4e	.	.	.
2.f	.	2a	ha-
.	.	2cc.	-be-
4g	.	.	.
=19	=19	=19	=19
4a	.	.	.
4g	.	4b-	.
4f	.	4a	.
4e	.	4g	.
4d	.	2a	.
4c	.	.	.
2d	.	1f	-bit
=20	=20	=20	=20
2B-	-bit	.	.
4G	lu-	2.b-	lu-
4A	.	.	.
4B-	.	.	.
4c	.	8aL	.
.	.	8gJ	.
4d	.	4f	.
4e	.	4g	.
=21	=21	=21	=21
2.f	.	4a	.
.	.	4b-	.
.	.	2cc.	.
4e	.	.	.
2f	.	.	.
.	.	4a	.
2d.	-men	2b-	.
=22	=22	=22	=22
.	.	2.a	-men
4c	.	.	.
4d	.	.	.
4e	.	4g	.
4f	.	4a	.
4d	.	4b-	.
4e	.	4cc	.
4f	.	4a	.
=23	=23	=23	=23
4g	.	2b-	.
4d	.	.	.
2f	.	4a	vi-
.	.	4b-	.
2f	vi-	4cc	.
.	.	4a	.
4e	.	2dd.	.
4d	.	.	.
=24	=24	=24	=24
1e	.	.	.
.	.	8cc#iL	.
.	.	8bniJ	.
.	.	2cc#i	.
0d	-tae:	1dd	-tac:
=25	=25	=25	=25
.	.	2r	.
.	.	2a	di-
2r	.	2b-	-cit-
2e	di-	2cc.	-Do-
=26	=26	=26	=26
2f	-cit	.	.
.	.	8b-L	.
.	.	8aJ	.
2g.	Do-	4b-	.
.	.	4g	.
.	.	2.a	.
8fL	.	.	.
8eJ	.	.	.
4f	.	.	.
4d	.	4a	-mo-
=27	=27	=27	=27
2.e	.	2g	-nus,
.	.	2cc.	di-
4e	-mi-	.	.
2d	-nus,	.	.
.	.	8b-L	.
.	.	8aJ	.
2g.	di-	2b-	.
=28	=28	=28	=28
.	.	2.a	-cit
8fL	.	.	.
8eJ	.	.	.
2f	.	.	.
.	.	4b-	.
2.e	-cit	2cc	.
.	.	4g	Do-
4f	.	4a	.
=29	=29	=29	=29
2g	.	4b-	.
.	.	4cc	.
4G	Do-	2dd.	.
4A	.	.	.
4B-	.	.	.
4c	.	4cc	.
2d.	.	4b-	.
.	.	4a	.
=30	=30	=30	=30
.	.	4b-	.
4c	.	4a	.
4B-	.	4g	.
4A	.	4f	.
4G	.	4b-	.
4F	.	4cc	.
4B-	.	4dd	.
4c	.	4cc	.
=31	=31	=31	=31
4d	.	4b-	.
4c	.	4a	.
4c	.	1a	.
8B-L	.	.	.
8AJ	.	.	.
2B-	.	.	.
2B-	-mi-	2g	-mi-
=32	=32	=32	=32
0A	-nus.	0a	-nus.
==	==	==	==
*-	*-	*-	*-
!!!RDF**kern: l = terminal long
!!!RDF**kern: i = editorial accidental
!!!PDT: 1590
!!!PED: Adam Berg
!!!AGN: Motet; Bicinium
!!!YOR: https://mdz-nbn-resolving.de/details:bsb00090897
!!!YOO: München, Bayerische Staatsbibliothek
!!!URL-scan: https://www.digitale-sammlungen.de/view/bsb00090897?page=9 Cantus
!!!URL-scan: https://www.digitale-sammlungen.de/view/bsb00090897?page=49 Altus
!!!IIIF: https://api.digitale-sammlungen.de/iiif/presentation/v2/bsb00090897/manifest
!!!EED: Mirko Sattig
!!!END: 2023/11/24
!!!ENC: Mirko Sattig
!!!EEV: 2024/02/10
!!!title: @{ONM}. @{OTL}
!!!system-decoration: [s1,s2]